X: 36763
T: Shelg Yn Dreean
R: jig
M: 6/8
K: Dmajor
A|d2d d2A|FDD D2d|e2e e2e|fed cBA|
d2d d2A|FEF G2G|A2A d2A|FDD D3||
|:F2F F2E|DCD FGA|B2B d2B|AGF E2:|

